icons/Home_Electricity.svg

<svg width="16" height="16" viewBox="0 0 16 16" fill="currentColor" xmlns="http://www.w3.org/2000/svg">
<g clip-path="url(#clip0_4_1858)">
<path d="M11.989 13.1454H10.5486C10.451 13.1454 10.3721 13.0645 10.3721 12.9646C10.3721 12.8647 10.451 12.7838 10.5486 12.7838H11.989C12.9695 12.7838 13.7687 11.9655 13.7687 10.9664V4.49598C13.7687 4.39607 13.8477 4.31519 13.9452 4.31519C14.0428 4.31519 14.1218 4.39607 14.1218 4.49598V10.9664C14.1218 12.1653 13.1693 13.1406 11.9937 13.1406L11.989 13.1454Z" fill="#3D3D3D"/>
<path d="M5.53037 13.193H4.04348C2.87255 13.193 1.92001 12.2177 1.92001 11.014V4.49598C1.92001 4.39607 1.999 4.31519 2.09658 4.31519C2.19416 4.31519 2.27315 4.39607 2.27315 4.49598V11.014C2.27315 12.0178 3.07235 12.8361 4.04813 12.8361H5.53502C5.63259 12.8361 5.71158 12.917 5.71158 13.0169C5.71158 13.1169 5.63259 13.1977 5.53502 13.1977L5.53037 13.193Z" fill="#3D3D3D"/>
<path d="M14.6841 4.48632H1.3486C1.18597 4.48632 1.05587 4.39592 1.01405 4.25319C0.972234 4.11522 1.03264 3.96297 1.1581 3.87258L7.84445 0.0664538C7.95133 -0.0239416 8.08143 -0.0239416 8.1883 0.0664538L10.0748 1.1512C10.1584 1.19878 10.191 1.3082 10.1398 1.39384C10.0934 1.47948 9.98651 1.50802 9.90287 1.46045L8.01638 0.380459L1.42759 4.12473H14.6052L11.5292 2.36916C11.4455 2.32158 11.413 2.21216 11.4641 2.12652C11.5106 2.04088 11.6174 2.01234 11.7011 2.05991L14.8979 3.89637C14.9955 3.99628 15.0233 4.15328 14.9722 4.2865C14.9211 4.41019 14.8096 4.48632 14.6841 4.48632Z" fill="#3D3D3D"/>
<path d="M10.1769 8.43531H5.90209C5.80452 8.43531 5.72552 8.35443 5.72552 8.25452C5.72552 8.15461 5.80452 8.07373 5.90209 8.07373H10.1769C10.2745 8.07373 10.3535 8.15461 10.3535 8.25452C10.3535 8.35443 10.2745 8.43531 10.1769 8.43531Z" fill="#3D3D3D"/>
<path d="M7.15666 8.38769C7.05908 8.38769 6.98009 8.30681 6.98009 8.2069V6.49415C6.98009 6.39423 7.05908 6.31335 7.15666 6.31335C7.25423 6.31335 7.33322 6.39423 7.33322 6.49415V8.2069C7.33322 8.30681 7.25423 8.38769 7.15666 8.38769Z" fill="#3D3D3D"/>
<path d="M9.06173 8.38769C8.96415 8.38769 8.88516 8.30681 8.88516 8.2069V6.49415C8.88516 6.39423 8.96415 6.31335 9.06173 6.31335C9.15931 6.31335 9.2383 6.39423 9.2383 6.49415V8.2069C9.2383 8.30681 9.15931 8.38769 9.06173 8.38769Z" fill="#3D3D3D"/>
<path d="M8.07667 10.5763C7.14736 10.5763 6.34351 9.94828 6.10654 9.01102C6.08331 8.91587 6.13906 8.81596 6.232 8.79217C6.32493 8.76838 6.4225 8.82547 6.44574 8.92062C6.65483 9.72467 7.3704 10.2528 8.17425 10.2147C9.03385 10.1719 9.72154 9.36309 9.68437 8.44962C9.68437 8.34971 9.75407 8.26883 9.85164 8.26407C9.94922 8.25455 10.0282 8.33543 10.0329 8.43534C10.084 9.55815 9.25689 10.5192 8.19283 10.5715C8.15566 10.5715 8.11849 10.5715 8.08131 10.5715L8.07667 10.5763Z" fill="#3D3D3D"/>
<path d="M9.75872 16H4.60107C4.50349 16 4.4245 15.9191 4.4245 15.8192C4.4245 15.7193 4.50349 15.6384 4.60107 15.6384H9.75872C9.92599 15.6384 10.1444 15.4005 10.1444 15.1531C10.1444 14.8582 9.93064 14.6203 9.66579 14.6203H7.06373C6.65483 14.6203 6.33422 14.2682 6.33422 13.8258C6.33422 13.3833 6.68271 12.9789 7.11019 12.9789H7.34252C7.59343 12.9789 7.91405 12.7505 7.91405 12.4889V10.5382C7.91405 10.4383 7.99304 10.3574 8.09061 10.3574C8.18819 10.3574 8.26718 10.4383 8.26718 10.5382V12.4889C8.26718 12.9646 7.77465 13.3357 7.34717 13.3357H7.11484C6.87787 13.3357 6.68736 13.5546 6.68736 13.8258C6.68736 14.0446 6.8314 14.2635 7.06838 14.2635H9.67043C10.1258 14.2635 10.4975 14.6631 10.4975 15.1579C10.4975 15.5908 10.1397 16 9.76337 16H9.75872Z" fill="#3D3D3D"/>
</g>
<defs>
<clipPath id="clip0_4_1858">
<rect width="16" height="16" fill="white"/>
</clipPath>
</defs>
</svg>

<svg xmlns="http://www.w3.org/2000/svg" width="16" height="16" fill="currentColor" class="si si-Home_Electricity" viewBox="0 0 16 16">
  <g clip-path="url(#a)">
    <path d="M11.989 13.145h-1.44a.18.18 0 0 1-.177-.18c0-.1.079-.181.177-.181h1.44c.98 0 1.78-.819 1.78-1.818v-6.47c0-.1.079-.18.176-.18.098 0 .177.08.177.18v6.47c0 1.2-.953 2.175-2.128 2.175zm-6.459.048H4.043c-1.17 0-2.123-.975-2.123-2.179V4.496c0-.1.079-.18.177-.18s.176.08.176.18v6.518c0 1.004.8 1.822 1.775 1.822h1.487c.098 0 .177.081.177.18 0 .1-.08.182-.177.182z"/>
    <path d="M14.684 4.486H1.35c-.163 0-.293-.09-.335-.233a.35.35 0 0 1 .144-.38L7.844.066a.25.25 0 0 1 .344 0l1.887 1.085a.176.176 0 0 1 .065.243.17.17 0 0 1-.237.066L8.016.38 1.428 4.125h13.177L11.53 2.369a.176.176 0 0 1-.065-.242.17.17 0 0 1 .237-.067l3.197 1.836c.098.1.125.257.074.39a.31.31 0 0 1-.288.2m-4.508 3.949H5.902a.18.18 0 0 1-.176-.18c0-.1.079-.181.176-.181h4.275c.098 0 .177.08.177.18s-.08.181-.177.181"/>
    <path d="M7.157 8.388a.18.18 0 0 1-.177-.181V6.494c0-.1.08-.18.177-.18s.176.08.176.18v1.713c0 .1-.079.18-.176.18m1.905.001a.18.18 0 0 1-.177-.181V6.494c0-.1.08-.18.177-.18s.176.08.176.18v1.713c0 .1-.079.18-.176.18"/>
    <path d="M8.077 10.576c-.93 0-1.733-.628-1.97-1.565a.18.18 0 0 1 .125-.219.176.176 0 0 1 .214.129 1.7 1.7 0 0 0 1.728 1.294c.86-.043 1.548-.852 1.51-1.765 0-.1.07-.181.168-.186.097-.01.176.071.18.171.052 1.123-.775 2.084-1.84 2.137h-.11z"/>
    <path d="M9.759 16H4.6a.18.18 0 0 1-.176-.18c0-.1.078-.182.176-.182h5.16c.167 0 .385-.238.385-.485 0-.295-.213-.533-.478-.533H7.064c-.41 0-.73-.352-.73-.794s.349-.847.776-.847h.233c.25 0 .571-.228.571-.49v-1.95c0-.1.079-.182.177-.182s.176.081.176.181v1.95c0 .477-.492.848-.92.848h-.232c-.237 0-.428.219-.428.49 0 .219.144.438.381.438H9.67c.456 0 .828.4.828.894 0 .433-.358.842-.735.842z"/>
  </g>
  <defs>
    <clipPath id="a">
      <path d="M0 0h16v16H0z"/>
    </clipPath>
  </defs>
</svg>
